X: 604
T: French Assembly, The
R: Waltz
M: 3/4
L: 1/8
Q: 150
K: Gmaj
"C"c2 cBcA | "G"B2 BABG | "D"A2 AGAF | "Em"G2 E2 E2 |"C"c2 cBcA | "G"B2 BABG | 
"D"A2 AGAF | "G"G6 :|]"G"G2 gf g2 | "G/B"G2 gf g2 | "D"agfedc | "G"BcdB G2 |"G"G2 gf g2 | 
"G/B"G2 gf g2 |"D"fafd"A"e^c|"D"d6|"C"c2 cBcA | "G/B"B2 BABG | "D"A2 AGAF | "Em"G2 E2 E2 |
"C"c2 cBcA | "G/B"B2 BABG | "D"A2 AGAF | "G"G2 z2 z2 |]

